packages/foundations/assets/icons/functional/images/transportation/car_16.svg

<svg width="16" height="16" viewBox="0 0 16 16" fill="none" xmlns="http://www.w3.org/2000/svg">
<g clip-path="url(#clip0_187_885)">
<path fill-rule="evenodd" clip-rule="evenodd" d="M10.9046 2.80537C11.5761 2.81075 12.2392 3.33715 12.3919 3.92807C12.4937 4.32202 12.7105 5.27932 13.0424 6.79999H14.4V8.39999H13.516C13.396 9.59418 13.316 10.2952 13.2759 10.5032C13.2159 10.8151 13.0424 11.2314 12.8007 11.4607V13.2H10.8V12.1928C9.86664 12.3309 8.93331 12.4 7.99998 12.4C7.06664 12.4 6.13331 12.3309 5.19998 12.1928L5.19459 13.2H3.19998L3.19944 11.4607C3.01222 11.2744 2.82963 10.9096 2.75998 10.6571C2.71355 10.4888 2.62128 9.73642 2.48318 8.39999H1.59998V6.79999H2.95678L3.56571 4.05469C3.75611 3.41063 4.31998 2.79999 5.23469 2.79999C6.14941 2.79999 10.2331 2.79999 10.9046 2.80537ZM6.9097 9.20678C6.70299 9.23813 6.52693 9.3756 6.44637 9.56853L6.20346 10.5348C6.17422 10.7992 6.32789 11.1093 6.66737 11.1863C7.00686 11.2634 7.25228 11.0757 7.35397 10.8306L7.46798 10.4H8.53118L8.64295 10.8232C8.75252 11.0976 9.05081 11.2557 9.3455 11.1821C9.64018 11.1084 9.82898 10.8285 9.79649 10.5348L9.55358 9.56853C9.47303 9.3756 9.29696 9.23813 9.09025 9.20678H6.9097ZM3.93454 8.68254C3.61166 8.608 3.28949 8.80932 3.21495 9.13219C3.14662 9.42816 3.31008 9.72354 3.5865 9.82814L4.83384 10.1217C5.15672 10.1963 5.47889 9.99495 5.55343 9.67208C5.62176 9.3761 5.4583 9.08073 5.18188 8.97614L3.93454 8.68254ZM12.7934 9.13219C12.7251 8.83622 12.4487 8.6424 12.1544 8.66957L10.9046 8.95248C10.5817 9.02703 10.3804 9.3492 10.4549 9.67208C10.5233 9.96805 10.7997 10.1619 11.094 10.1347L12.3438 9.85179C12.6667 9.77724 12.868 9.45507 12.7934 9.13219ZM11.1662 4.15999H4.83458L4.31998 6.79999H11.68L11.1662 4.15999Z" fill="#1A1C1F"/>
</g>
<defs>
<clipPath id="clip0_187_885">
<rect width="16" height="16" fill="white"/>
</clipPath>
</defs>
</svg>

<svg xmlns="http://www.w3.org/2000/svg" width="16" height="16" fill="none"><g clip-path="url(#a)"><path fill="#1A1C1F" fill-rule="evenodd" d="M10.905 2.805c.671.006 1.334.532 1.487 1.123q.153.59.65 2.872H14.4v1.6h-.884q-.18 1.791-.24 2.103c-.06.312-.234.728-.475.958V13.2H10.8v-1.007a19.1 19.1 0 0 1-5.6 0L5.195 13.2H3.2v-1.74c-.188-.186-.37-.55-.44-.803q-.07-.252-.277-2.257H1.6V6.8h1.357l.609-2.745C3.756 3.41 4.32 2.8 5.235 2.8c.914 0 4.998 0 5.67.005M6.91 9.207a.6.6 0 0 0-.464.362l-.243.966a.597.597 0 0 0 .464.651c.34.077.585-.11.687-.355l.114-.431h1.063l.112.423a.6.6 0 0 0 1.153-.288l-.242-.966a.6.6 0 0 0-.464-.362zm-2.975-.524a.6.6 0 0 0-.349 1.145l1.248.294a.6.6 0 0 0 .348-1.146zm8.858.45a.6.6 0 0 0-.639-.463l-1.25.282a.6.6 0 0 0 .19 1.183l1.25-.283a.6.6 0 0 0 .45-.72M11.166 4.16H4.835L4.32 6.8h7.36z" clip-rule="evenodd"/></g><defs><clipPath id="a"><path fill="#fff" d="M0 0h16v16H0z"/></clipPath></defs></svg>
